X: 1
T:Miss Spence's Reel
B:Tom Anderson
R:Reel
O:Shetland
N:Made in 1759
M:4/4
C:J. Anderson
K:D
A | d2AG F2DF | E=C3 c3A | \
B2AG FE [A,2(D2] | [D)A,] d2c d3 :|\
|: e |\
fafd fafd | egec egec | fafd fafd | egec d3 :|
